src/raw/air-con/icon_24.svg

<svg width="24" height="24" viewBox="0 0 24 24" fill="none" xmlns="http://www.w3.org/2000/svg">
<path d="M20.25 0.75H3.75C2.09315 0.75 0.75 2.09315 0.75 3.75V8.25C0.75 9.90685 2.09315 11.25 3.75 11.25H20.25C21.9069 11.25 23.25 9.90685 23.25 8.25V3.75C23.25 2.09315 21.9069 0.75 20.25 0.75Z" stroke="#71717A" stroke-width="1.5" stroke-linecap="round" stroke-linejoin="round"/>
<path d="M5.25 3.75H18.75" stroke="#71717A" stroke-width="1.5" stroke-linecap="round" stroke-linejoin="round"/>
<path d="M3.75 11.25V9.75C3.75 9.35218 3.90804 8.97064 4.18934 8.68934C4.47064 8.40804 4.85218 8.25 5.25 8.25H18.75C19.1478 8.25 19.5294 8.40804 19.8107 8.68934C20.092 8.97064 20.25 9.35218 20.25 9.75V11.25" stroke="#71717A" stroke-width="1.5" stroke-linecap="round" stroke-linejoin="round"/>
<path d="M3.87886 22.485C4.44127 21.9224 4.75722 21.1595 4.75722 20.364C4.75722 19.5685 4.44127 18.8056 3.87886 18.243C3.60023 17.9644 3.37921 17.6337 3.22841 17.2697C3.07761 16.9057 3 16.5155 3 16.1215C3 15.7275 3.07761 15.3374 3.22841 14.9733C3.37321 14.6238 3.58277 14.3049 3.84591 14.0335" stroke="#71717A" stroke-width="1.5" stroke-linecap="round" stroke-linejoin="round"/>
<path d="M11.8789 22.485C12.4413 21.9224 12.7572 21.1595 12.7572 20.364C12.7572 19.5685 12.4413 18.8056 11.8789 18.243C11.6002 17.9644 11.3792 17.6337 11.2284 17.2697C11.0776 16.9057 11 16.5155 11 16.1215C11 15.7275 11.0776 15.3374 11.2284 14.9733C11.3732 14.6239 11.5827 14.3051 11.8457 14.0337" stroke="#71717A" stroke-width="1.5" stroke-linecap="round" stroke-linejoin="round"/>
<path d="M19.8789 22.485C20.4413 21.9224 20.7572 21.1595 20.7572 20.364C20.7572 19.5685 20.4413 18.8056 19.8789 18.243C19.6002 17.9644 19.3792 17.6337 19.2284 17.2697C19.0776 16.9056 19 16.5155 19 16.1215C19 15.7275 19.0776 15.3373 19.2284 14.9733C19.375 14.6195 19.5879 14.2971 19.8556 14.0235" stroke="#71717A" stroke-width="1.5" stroke-linecap="round" stroke-linejoin="round"/>
</svg>

<svg xmlns="http://www.w3.org/2000/svg" width="24" height="24" fill="none" viewBox="0 0 24 24">
  <path stroke="#3F3F46" stroke-linecap="round" stroke-linejoin="round" stroke-width="1.5"
    d="M20.25.75H3.75a3 3 0 0 0-3 3v4.5a3 3 0 0 0 3 3h16.5a3 3 0 0 0 3-3v-4.5a3 3 0 0 0-3-3ZM5.25 3.75h13.5" />
  <path stroke="#3F3F46" stroke-linecap="round" stroke-linejoin="round" stroke-width="1.5"
    d="M3.75 11.25v-1.5a1.5 1.5 0 0 1 1.5-1.5h13.5a1.5 1.5 0 0 1 1.5 1.5v1.5M3.879 22.485a3 3 0 0 0 0-4.242 3 3 0 0 1-.033-4.21M11.879 22.485a3 3 0 0 0 0-4.242 2.998 2.998 0 0 1-.033-4.21M19.879 22.485a3 3 0 0 0 0-4.242 3 3 0 0 1-.023-4.22" />
</svg>
